assets/logo.svg

<svg viewBox="0 765.7 76.37 76.3" xmlns="http://www.w3.org/2000/svg" xmlns:xlink="http://www.w3.org/1999/xlink"><clipPath id="a"><path d="m0 765.703125h76.371094v76.296875h-76.371094zm0 0"/></clipPath><g clip-path="url(#a)"><path d="m59.800781 781.976562c-.210937.433594-.480469.769532-.863281 1.0625-.757812.578126-1.777344.8125-2.675781.921876-1.003907.128906-1.996094.125-3 .03125-.820313-.070313-1.816407-.21875-2.621094-.398438-.410156-.09375-.808594-.207031-1.207031-.347656-.402344-.140625-.785156-.296875-1.140625-.550782-.421875-.304687-.71875-.695312-.949219-1.160156-.035156-.070312-.066406-.140625-.097656-.210937-.03125-.066407-.054688-.132813-.085938-.203125-.050781-.117188-.113281-.222656-.191406-.328125-.15625-.203125-.363281-.375-.601562-.488281-.105469-.054688-.214844-.09375-.332032-.121094-.113281-.027344-.226562-.039063-.339844-.050782-.234374-.011718-.472656-.019531-.707031-.023437-.472656-.011719-.941406.003906-1.414062.03125-.804688.046875-1.605469.132813-2.402344.242187 0-.335937.003906-.671874.007813-1.007812.015624-1.957031.035156-3.914062.050781-5.871094 1.738281-.207031 3.46875-.324218 5.222656-.300781 1.867187.019531 3.785156.203125 5.609375.625.910156.210937 1.796875.480469 2.667969.835937.863281.351563 1.753906.804688 2.523437 1.335938.773438.527344 1.484375 1.175781 2.011719 1.964844.511719.761718.875 1.707031.859375 2.648437-.011719.476563-.117188.9375-.324219 1.363281zm-2.4375 23.101563c-.207031 1.503906-.726562 2.925781-1.558593 4.199219-.832032 1.261718-1.933594 2.339844-3.121094 3.25-1.175782.914062-2.511719 1.71875-3.835938 2.398437-2.695312 1.378907-5.199218 2.195313-7.996094 3.183594.011719-1.695313.027344-3.417969.039063-5.167969 1.34375-.523437 2.65625-1.097656 3.941406-1.753906.730469-.375 1.445313-.773438 2.144531-1.199219.71875-.4375 1.414063-.890625 2.058594-1.4375.605469-.511719 1.167969-1.109375 1.558594-1.816406.398438-.71875.574219-1.480469.582031-2.296875.011719-.828125-.15625-1.671875-.472656-2.4375-.320313-.773438-.761719-1.40625-1.363281-1.988281-1.175782-1.140625-2.773438-1.847657-4.289063-2.316407-1.546875-.472656-3.117187-.722656-4.714843-.90625-.804688-.09375-1.609376-.171874-2.414063-.253906-.804687-.082031-1.605469-.171875-2.40625-.269531-1.613281-.199219-3.21875-.429687-4.816406-.742187-1.585938-.304688-3.144531-.679688-4.6875-1.148438-1.539063-.464844-3.121094-1.066406-4.5-1.921875-1.390625-.871094-2.558594-1.988281-3.285157-3.5-.355468-.734375-.605468-1.558594-.648437-2.382813-.042969-.835937.125-1.550781.496094-2.292968.363281-.722656.882812-1.378906 1.425781-1.960938.535156-.574218 1.210938-1.195312 1.808594-1.703125 1.238281-1.039062 2.550781-1.929687 3.964844-2.710937 1.429687-.785156 2.90625-1.429688 4.445312-1.960938 1.402344-.492187 2.824219-.875 4.265625-1.203125.019531 2.449219.042969 4.84375.0625 7.066407-1.308594.363281-2.582031.792968-3.820313 1.378906-.691406.328125-1.351562.695312-1.984374 1.125-.570313.382812-1.292969.890625-1.5625 1.605468-.136719.367188-.148438.78125-.066407 1.15625.089844.386719.257813.699219.558594.964844.285156.246094.640625.421875.980469.566406.355468.148438.714844.28125 1.078125.410157 1.414062.488281 2.851562.820312 4.320312 1.089843 2.816407.523438 6.125.925782 8.949219 1.386719 2.917969.472657 5.976562 1.0625 8.660156 2.496094 1.332032.710937 2.574219 1.636719 3.601563 2.75 1.035156 1.117187 1.8125 2.378906 2.257812 3.847656.449219 1.449219.554688 3 .34375 4.496094zm-22.851562 33.734375c-3.128907-.71875-9.609375-4.515625-11.367188-9.574219-.492187-1.507812-.550781-2.953125-.171875-4.324219.382813-1.375 1.089844-2.632812 2.078125-3.785156.992188-1.148437 2.074219-2.066406 3.054688-2.746094.976562-.683593 2.144531-1.339843 3.1875-1.855468 1.042969-.507813 1.960937-.878906 3.035156-1.195313.015625 1.804688.03125 3.570313.042969 5.316407-.972656.386718-1.582032.671874-2.484375 1.207031-.90625.539062-2.09375 1.328125-2.796875 2.328125-.703125 1.003906-.984375 2.011718-.84375 3.195312s.550781 2.210938 1.230468 3.078125c.683594.867188 1.449219 1.632813 2.308594 2.296875.855469.660156 1.765625 1.246094 2.726563 1.746094zm41.582031-39.585938c-.628906-5.175781-2.3125-10.171874-4.949219-14.671874-2.636719-4.503907-6.164062-8.417969-10.371093-11.503907-3.882813-2.847656-8.261719-4.933593-12.917969-6.152343-2.542969-.664063-5.136719-1.066407-7.746094-1.195313-.003906.445313-.003906.894531-.007813 1.34375-.003906.539063-.007812 1.078125-.011718 1.617187-.011719 1.082032-.019532 2.160157-.03125 3.242188-.058594 6.808594-.113282 13.625-.171875 17.988281-.996094-.144531-1.996094-.289062-2.996094-.441406-.527344-.078125-1.054687-.160156-1.582031-.246094-.058594-4.347656-.113282-11.109375-.167969-17.867187-.019531-1.855469-.03125-3.707032-.046875-5.5625-.507812.042968-1.011719.09375-1.515625.152344-5.179687.632812-10.171875 2.3125-14.675781 4.949218-4.503906 2.636719-8.417969 6.164063-11.503906 10.371094-2.847657 3.882812-4.933594 8.257812-6.152344 12.917969-1.2187502 4.65625-1.546875 9.496093-.964844 14.277343.628906 5.179688 2.3125 10.171876 4.945312 14.675782 2.636719 4.503906 6.164063 8.417968 10.371094 11.503906 3.882813 2.851562 8.261719 4.933594 12.921875 6.152344 2.367188.621094 4.78125 1.011718 7.210938 1.167968-.011719-1.695312-.027344-3.390624-.039063-5.085937-.105468-12.152344-.207031-24.300781-.308594-39.417969.332032.039063.660157.078125.992188.117188.363281.039062.726562.082031 1.09375.117187.503906.054688 1.007812.105469 1.515625.160157.277344.023437.554687.054687.832031.082031-.105468 15.773437-.214844 28.589843-.324218 41.402343-.007813.894532-.011719 1.789063-.019532 2.679688 1.109375-.035156 2.214844-.121094 3.324219-.257812 5.175781-.628907 10.171875-2.3125 14.671875-4.945313 4.503906-2.636719 8.421875-6.164063 11.507812-10.371094 2.847657-3.882812 4.929688-8.261719 6.152344-12.921875 1.21875-4.65625 1.542969-9.496094.964844-14.277344" fill="#2f7393"/></g><path d="m51.8125 776.46875c-.71875.132812-1.199219.824219-1.070312 1.542969.128906.722656.816406 1.199219 1.539062 1.070312.722656-.128906 1.203125-.816406 1.070312-1.539062-.128906-.722657-.816406-1.199219-1.539062-1.074219" fill="#2f7393"/></svg>

<svg xmlns="http://www.w3.org/2000/svg" xmlns:xlink="http://www.w3.org/1999/xlink" version="1.1" viewBox="0 765.7 76.37 76.3">
<defs>
<clipPath id="clip1">
  <path d="M 0 765.703125 L 76.371094 765.703125 L 76.371094 842 L 0 842 Z M 0 765.703125 "/>
</clipPath>
</defs>
<g id="surface1">
<g clip-path="url(#clip1)" clip-rule="nonzero">
<path style=" stroke:none;fill-rule:nonzero;fill:rgb(18.516541%,45.068359%,57.530212%);fill-opacity:1;" d="M 59.800781 781.976562 C 59.589844 782.410156 59.320312 782.746094 58.9375 783.039062 C 58.179688 783.617188 57.160156 783.851562 56.261719 783.960938 C 55.257812 784.089844 54.265625 784.085938 53.261719 783.992188 C 52.441406 783.921875 51.445312 783.773438 50.640625 783.59375 C 50.230469 783.5 49.832031 783.386719 49.433594 783.246094 C 49.03125 783.105469 48.648438 782.949219 48.292969 782.695312 C 47.871094 782.390625 47.574219 782 47.34375 781.535156 C 47.308594 781.464844 47.277344 781.394531 47.246094 781.324219 C 47.214844 781.257812 47.191406 781.191406 47.160156 781.121094 C 47.109375 781.003906 47.046875 780.898438 46.96875 780.792969 C 46.8125 780.589844 46.605469 780.417969 46.367188 780.304688 C 46.261719 780.25 46.152344 780.210938 46.035156 780.183594 C 45.921875 780.15625 45.808594 780.144531 45.695312 780.132812 C 45.460938 780.121094 45.222656 780.113281 44.988281 780.109375 C 44.515625 780.097656 44.046875 780.113281 43.574219 780.140625 C 42.769531 780.1875 41.96875 780.273438 41.171875 780.382812 C 41.171875 780.046875 41.175781 779.710938 41.179688 779.375 C 41.195312 777.417969 41.214844 775.460938 41.230469 773.503906 C 42.96875 773.296875 44.699219 773.179688 46.453125 773.203125 C 48.320312 773.222656 50.238281 773.40625 52.0625 773.828125 C 52.972656 774.039062 53.859375 774.308594 54.730469 774.664062 C 55.59375 775.015625 56.484375 775.46875 57.253906 776 C 58.027344 776.527344 58.738281 777.175781 59.265625 777.964844 C 59.777344 778.726562 60.140625 779.671875 60.125 780.613281 C 60.113281 781.089844 60.007812 781.550781 59.800781 781.976562 Z M 57.363281 805.078125 C 57.15625 806.582031 56.636719 808.003906 55.804688 809.277344 C 54.972656 810.539062 53.871094 811.617188 52.683594 812.527344 C 51.507812 813.441406 50.171875 814.246094 48.847656 814.925781 C 46.152344 816.304688 43.648438 817.121094 40.851562 818.109375 C 40.863281 816.414062 40.878906 814.691406 40.890625 812.941406 C 42.234375 812.417969 43.546875 811.84375 44.832031 811.1875 C 45.5625 810.8125 46.277344 810.414062 46.976562 809.988281 C 47.695312 809.550781 48.390625 809.097656 49.035156 808.550781 C 49.640625 808.039062 50.203125 807.441406 50.59375 806.734375 C 50.992188 806.015625 51.167969 805.253906 51.175781 804.4375 C 51.1875 803.609375 51.019531 802.765625 50.703125 802 C 50.382812 801.226562 49.941406 800.59375 49.339844 800.011719 C 48.164062 798.871094 46.566406 798.164062 45.050781 797.695312 C 43.503906 797.222656 41.933594 796.972656 40.335938 796.789062 C 39.53125 796.695312 38.726562 796.617188 37.921875 796.535156 C 37.117188 796.453125 36.316406 796.363281 35.515625 796.265625 C 33.902344 796.066406 32.296875 795.835938 30.699219 795.523438 C 29.113281 795.21875 27.554688 794.84375 26.011719 794.375 C 24.472656 793.910156 22.890625 793.308594 21.511719 792.453125 C 20.121094 791.582031 18.953125 790.464844 18.226562 788.953125 C 17.871094 788.21875 17.621094 787.394531 17.578125 786.570312 C 17.535156 785.734375 17.703125 785.019531 18.074219 784.277344 C 18.4375 783.554688 18.957031 782.898438 19.5 782.316406 C 20.035156 781.742188 20.710938 781.121094 21.308594 780.613281 C 22.546875 779.574219 23.859375 778.683594 25.273438 777.902344 C 26.703125 777.117188 28.179688 776.472656 29.71875 775.941406 C 31.121094 775.449219 32.542969 775.066406 33.984375 774.738281 C 34.003906 777.1875 34.027344 779.582031 34.046875 781.804688 C 32.738281 782.167969 31.464844 782.597656 30.226562 783.183594 C 29.535156 783.511719 28.875 783.878906 28.242188 784.308594 C 27.671875 784.691406 26.949219 785.199219 26.679688 785.914062 C 26.542969 786.28125 26.53125 786.695312 26.613281 787.070312 C 26.703125 787.457031 26.871094 787.769531 27.171875 788.035156 C 27.457031 788.28125 27.8125 788.457031 28.152344 788.601562 C 28.507812 788.75 28.867188 788.882812 29.230469 789.011719 C 30.644531 789.5 32.082031 789.832031 33.550781 790.101562 C 36.367188 790.625 39.675781 791.027344 42.5 791.488281 C 45.417969 791.960938 48.476562 792.550781 51.160156 793.984375 C 52.492188 794.695312 53.734375 795.621094 54.761719 796.734375 C 55.796875 797.851562 56.574219 799.113281 57.019531 800.582031 C 57.46875 802.03125 57.574219 803.582031 57.363281 805.078125 Z M 34.511719 838.8125 C 31.382812 838.09375 24.902344 834.296875 23.144531 829.238281 C 22.652344 827.730469 22.59375 826.285156 22.972656 824.914062 C 23.355469 823.539062 24.0625 822.28125 25.050781 821.128906 C 26.042969 819.980469 27.125 819.0625 28.105469 818.382812 C 29.082031 817.699219 30.25 817.042969 31.292969 816.527344 C 32.335938 816.019531 33.253906 815.648438 34.328125 815.332031 C 34.34375 817.136719 34.359375 818.902344 34.371094 820.648438 C 33.398438 821.035156 32.789062 821.320312 31.886719 821.855469 C 30.980469 822.394531 29.792969 823.183594 29.089844 824.183594 C 28.386719 825.1875 28.105469 826.195312 28.246094 827.378906 C 28.386719 828.5625 28.796875 829.589844 29.476562 830.457031 C 30.160156 831.324219 30.925781 832.089844 31.785156 832.753906 C 32.640625 833.414062 33.550781 834 34.511719 834.5 C 34.511719 835.9375 34.511719 837.375 34.511719 838.8125 Z M 76.09375 799.226562 C 75.464844 794.050781 73.78125 789.054688 71.144531 784.554688 C 68.507812 780.050781 64.980469 776.136719 60.773438 773.050781 C 56.890625 770.203125 52.511719 768.117188 47.855469 766.898438 C 45.3125 766.234375 42.71875 765.832031 40.109375 765.703125 C 40.105469 766.148438 40.105469 766.597656 40.101562 767.046875 C 40.097656 767.585938 40.09375 768.125 40.089844 768.664062 C 40.078125 769.746094 40.070312 770.824219 40.058594 771.90625 C 40 778.714844 39.945312 785.53125 39.886719 789.894531 C 38.890625 789.75 37.890625 789.605469 36.890625 789.453125 C 36.363281 789.375 35.835938 789.292969 35.308594 789.207031 C 35.25 784.859375 35.195312 778.097656 35.140625 771.339844 C 35.121094 769.484375 35.109375 767.632812 35.09375 765.777344 C 34.585938 765.820312 34.082031 765.871094 33.578125 765.929688 C 28.398438 766.5625 23.40625 768.242188 18.902344 770.878906 C 14.398438 773.515625 10.484375 777.042969 7.398438 781.25 C 4.550781 785.132812 2.464844 789.507812 1.246094 794.167969 C 0.0273438 798.824219 -0.300781 803.664062 0.28125 808.445312 C 0.910156 813.625 2.59375 818.617188 5.226562 823.121094 C 7.863281 827.625 11.390625 831.539062 15.597656 834.625 C 19.480469 837.476562 23.859375 839.558594 28.519531 840.777344 C 30.886719 841.398438 33.300781 841.789062 35.730469 841.945312 C 35.71875 840.25 35.703125 838.554688 35.691406 836.859375 C 35.585938 824.707031 35.484375 812.558594 35.382812 797.441406 C 35.714844 797.480469 36.042969 797.519531 36.375 797.558594 C 36.738281 797.597656 37.101562 797.640625 37.46875 797.675781 C 37.972656 797.730469 38.476562 797.78125 38.984375 797.835938 C 39.261719 797.859375 39.539062 797.890625 39.816406 797.917969 C 39.710938 813.691406 39.601562 826.507812 39.492188 839.320312 C 39.484375 840.214844 39.480469 841.109375 39.472656 842 C 40.582031 841.964844 41.6875 841.878906 42.796875 841.742188 C 47.972656 841.113281 52.96875 839.429688 57.46875 836.796875 C 61.972656 834.160156 65.890625 830.632812 68.976562 826.425781 C 71.824219 822.542969 73.90625 818.164062 75.128906 813.503906 C 76.347656 808.847656 76.671875 804.007812 76.09375 799.226562 "/>
</g>
<path style=" stroke:none;fill-rule:nonzero;fill:rgb(18.516541%,45.068359%,57.530212%);fill-opacity:1;" d="M 51.8125 776.46875 C 51.09375 776.601562 50.613281 777.292969 50.742188 778.011719 C 50.871094 778.734375 51.558594 779.210938 52.28125 779.082031 C 53.003906 778.953125 53.484375 778.265625 53.351562 777.542969 C 53.222656 776.820312 52.535156 776.34375 51.8125 776.46875 "/>
</g>
</svg>
